X: 142
T: John French's Compts to Mr Nath. Gow
C: attr. John French (1753-1803)
R: strathspey
Q: "Slow"
B: "John French Collection", John French ed. p.14 #2
S: http://www.heallan.com/french.asp
Z: 2012 John Chambers <jc:trillian.mit.edu>
M: C
L: 1/8
K: Eb
c |\
B<GG>F E<CC>E | B,>CE>F [GE][FD][FD]c | B<GG>F E<CC>E |\
[1 C>E {c}BA/G/ TF2 E :|[2 B,>e {c}BA/G/ TF2E ||
a |\
g<ee>c B<GTG>F | EeBG TF>ECa | g<ee>c B<GG>F | Ee {c}BA/G/ TF2E>a |
g<ee>c B<GG>F | EeBG TF>ECF | E<B,E>F G>Bce | B<E {c}BA/G/ TF2E |]

%%sep 2 1 500
%%sep 1 1 500

